X:1
T:Scapulis Suis
T:Giambatista Casali (1715?-1792)
T:ed. Jeffrey Quick
T:Scapulis Suis
T:Offertory, 1st Sunday in Lent
T:©2018
T:©2018
T:©2018
T:©2018
T:©2018
C:Giambatista Casali
Z:©2018
%%score [ 1 2 3 4 ]
L:1/8
Q:1/2=90
M:2/2
K:F
V:1 treble nm="Soprano" snm="S"
V:2 treble nm="Alto" snm="A"
V:3 treble-8 nm="Tenor" snm="T"
V:4 bass nm="Bass" snm="B"
V:1
 z8 | c4 c2 c2 | A2 F2 A2 B2 | c4 B4- | B4 A4 | G8 | A4 c2 B2 | A4 B4 | B4 A4 | G6 G2 | F4 A2 B2 | %11
w: |Sca- pu- lis|su- is o- bum-|bra- *|* bit|ti-|bi o- bum-|bra- bit|ti- bi|Do- mi-|nus, o- bum-|
 c6 B2 | A8 | G4 c4- | c2 =B2 A2 d2 | =B2 G2 c4- | c4 =B4 | c4 c4- | c2 F2 B4- | B4 A4 | G4 G4 | %21
w: bra- bit|ti-|bi o-|* bum- bra- bit|ti- bi Do-|* mi-|nus, o-|* bum- bra-|* bit|ti- bi|
 A6 A2 | G4 c2 c2 | B4 G4 | G4 A4 | B6 B2 | A4 z4 | c6 =B2 | A6 A2 | G8 | F8 | z8 | z4 c2 B2 | %33
w: Do- mi-|nus, o- bum-|bra- bit|ti- bi|Do- mi-|nus,|o- bum-|bra- bit|ti-|bi||o- bum-|
 A8- | A4 B4 | B4 A4 | G6 G2 | F8 | A6 A2 | B4 A4- | A4 G4 | A2 E2 A4- | A4 A4 | B8 | A6 B2 | A8 | %46
w: bra-|* bit|ti- bi|Do- mi-|nus,|et sub|pen- nis|_ e-|ius, sub pen-|* nis|e-|ius spe-|ra-|
 A4 d4- | d4 c2 d2 | B8 | B4 B4- | B2 B2 c2 B2 | A8 | A4 B4- | B4 A4 | G6 B2 | A4 A2 B2 | c6 B2 | %57
w: bis. Sca-|* pu- lis|su-|is o-|* bum- bra- bit|ti-|bi Do-||* mi-|nus, et sub|pen- nis|
 A8 | G4 G4 | c8- | c4 B4- | B4 A4 | G4 c4- | c4 B4 | A8 | G4 A4 | G8- | G8 | A16 || %69
w: e-|ius spe-|ra-|||||||||bis.|
[M:3/2][Q:1/2=135] z12 | z12 | z12 | z12 | z12 | z12 | F6 G2 A4 | B4 G4 c4 | A4 F2 G2 A2 =B2 | %78
w: ||||||Scu- to cir-|cum- da- bit|te ve- * * *|
 c12- | c4 =B4 B4 | c8 B4 | A12 | G12 | c4 A4 A4 | G4 c8 | d12 | c4 c8- | c6 B2 A2 c2 | B6 B2 F4- | %89
w: |* ri- tas|e- *||ius,-|ve- ri- tas|e- *||ius,- ve-||* ri- tas|
 F4 B8 | A12 | z4 d2 e2 d2 c2 | =B12 | c6 c2 c4 | =B4 c8- | c4 =B8 | c8 c4 | B4 B4 G4 | A12 | %99
w: _ e-|ius,-|ve- * * *||* ri- tas|e- *||ius,- cir-|cum- da- bit|te|
 G6 G2 G4 | c4 A4 A4 | G12 | F8 z4 | z12 | F6 G2 A4 | B4 G4 c4 | A4 F2 G2 A2 =B2 | c6 c2 c4 | d12 | %109
w: ve- ri- tas|ve- ri- tas|e-|ius,-||Scu- to cir-|cum- da- bit|te ve- * * *|* ri- tas|e-|
 c12 | c6 B2 A4 | G4 G4 G4 | A12 | G4 c8- | c6 c2 =B4 | c12- | c4 B8- | B4 A8 | G12 | A12 | %120
w: ius,-|ve- ri- tas|ve- ri- tas|e-|ius,- ve-|* ri- tas|e-||||ius,-|
 B6 B2 A4 | B4 B4 c4 | B24 | !fermata!A24 |] %124
w: ve- ri- tas|ve- ri- tas|e-|ius.|
V:2
 F4 F2 F2 | E8 | F4 F4- | F2 E2 D2 G2 | E2 C2 F4- | F4 E4 | F4 F2 F2 | F6 G2 | (G2 E2) (F2 E2) | %9
w: Sca- pu- lis|su-|is o-|* bum- bra- bit|ti- bi Do-|* mi-|nus, o- bum-|bra- bit|ti- * bi _|
 D4 C4 | C4 F2 G2 | A6 G2 | F8- | F4 E4 | A8 | G8 | F6 F2 | E8 | D6 E2 | F2 C2 F4- | F4 E4 | %21
w: Do- mi-|nus, o- bum-|bra- bit|ti-|* bi|Do-||* mi-|nus,|o- bum-|bra- bit ti-|* bi|
 F6 F2 | E4 F4- | F2 E2 D2 G2 | E2 C2 F4- | F4 E4 | F4 F2 F2 | E8 | F8 | D4 C4 | D6 D2 | E4 E2 G2 | %32
w: Do- mi-|nus, o-|* bum- bra- bit|ti- bi Do-|* mi-|nus, o- bum-|bra-|bit|ti- bi|Do- mi-|nus, o- bum-|
 F4 G4 | C4 F4 | F6 D2 | G4 F2 E2 | D4 C4 | C8 | F6 D2 | G4 E4 | D8 | E6 E2 | F4 F4 | G4 G2 F2 | %44
w: bra- bit|ti- bi|Do- *||* mi-|nus,|et sub|pen- nis|e-|ius, sub|pen- nis|e- ius spe-|
 E4 F4 | E8 | D4 F4- | F4 E2 F2 | G8 | G4 G4- | G2 G2 G2 G2 | F8 | F4 F2 D2 | G4 F2 E2 | D4 C4 | %55
w: ra- *||bis. Sca-|* pu- lis|su-|is o-|* bum- bra- bit|ti-|bi Do- *||* mi-|
 C4 F2 G2 | A6 G2 | F8- | F4 E4 | F4 F4- | F4 G4- | G4 F4 | E4 F4 | D4 E4 | F8 | E4 F4- | %66
w: nus, et sub|pen- nis|e-||ius spe-|* ra-||||||
 F4 E2 D2 | E8 | F16 ||[M:3/2] z12 | z12 | z12 | z12 | z12 | z12 | z12 | z12 | z12 | C6 D2 E4 | %79
w: ||bis.||||||||||Scu- to cir-|
 F4 D4 G4 | E4 C2 D2 E2 C2 | F12- | F4 E4 E4 | F12 | E8 G4 | A4 F4 G4 | G4 E2 F2 G2 E2 | F12- | %88
w: cum- da- bit|te ve- * * *||* ri- tas|e-|ius,- cir-|cum- da- bit|te ve- * * *||
 F6 F2 F4- | F4 E8 | F4 F2 G2 F2 E2 | D8 A4- | A4 G2 A2 G2 F2 | E6 E2 A4 | G12- | G12 | G8 C4 | %97
w: * ri- tas|_ e-|ius,- ve- * * *|||* ri- tas|e-||ius,- cir-|
 D4 D4 E4 | F4 F8- | F4 E4 E4 | F12 | E12 | D6 D2 D4 | G12 | F12 | z12 | z12 | C6 D2 E4 | %108
w: cum- da- bit|te ve-|* ri- tas|e-|ius,-|ve- ri- tas|e-|ius,-|||Scu- to cir-|
 F4 D4 G4 | E4 C2 D2 E2 C2 | F12- | F4 E4 E4 | F12 | E12 | A6 G2 F4 | E6 F2 G2 E2 | F4 G4 F4 | %117
w: cum- da- bit|te ve- * * *||* ri- tas|e-|ius,-|ve- ri- tas|e- * * *||
 E4 F8- | F4 E8 | F12 | F12- | F6 F2 F4 | F24 | !fermata!F24 |] %124
w: ||ius,-|ve-|* ri- tas|e-|ius.|
V:3
 A4 A2 A2 | G8 | A8 | z8 | z8 | c4 c2 c2 | A2 F2 A2 B2 | c4 d4 | G4 A4 | B4 c4 | A8 | z4 A2 B2 | %12
w: Sca- pu- lis|su-|is|||Sca- pu- lis|su- is o- bum-|bra- bit|ti- bi|Do- mi-|nus,|o- bum-|
 c4 c4 | c4 c4 | c4 d4- | d4 c4 | d6 d2 | G8 | z8 | z8 | z8 | z8 | c4 c2 c2 | d8 | c4 c2 c2 | B8 | %26
w: bra- bit|ti- bi|Do- *||* mi-|nus,|||||Sca- pu- lis|su-|is o- bum-|bra-|
 c4 A2 =B2 | c4 C4 | F8- | F4 E4 | D6 D2 | C4 c2 B2 | A4 E4 | F2 G2 A2 B2 | c4 d4 | c8 | B6 B2 | %37
w: bit o- bum-|bra- bit|ti-|* bi|Do- mi-|nus, o- bum-|bra- bit|ti- * bi _|Do- *||* mi-|
 A4 c4- | c2 c2 d4- | d4 ^c4 | d8 | ^c6 c2 | d4 d4 | d4 e2 d2 | ^c4 d4- | d4 ^c4 | d8 | z8 | %48
w: nus, et|_ sub pen-|* nis|e-|ius, sub|pen- nis|e- ius spe-|ra- *||bis.||
 z4 d4- | d4 d2 d2 | c8 | c4 c4- | c2 c2 d2 d2 | c4 c4 | B6 G2 | A8 | z4 A2 B2 | c8- | c8- | %59
w: Sca-|* pu- lis|su-|is o-|* bum- bra- bit|ti- bi|Do- mi-|nus,|et sub|pen-||
 c4 A4 | d8 | c4 c4 | c4 A4 | B4 G4 | A2 G2 A2 =B2 | c8- | c8- | c8 | c16 ||[M:3/2] F6 G2 A4 | %70
w: * nis|e-|ius spe-|ra- *||||||bis.|Scu- to cir-|
 B4 G4 c4 | A4 F2 G2 A2 =B2 | c12- | c4 =B4 B4 | c8 B4 | A12 | G12 | F12 | E12 | z12 | z12 | z12 | %82
w: cum- da- bit|te ve- * * *||* ri- tas|e- *||||ius,-||||
 z12 | z12 | C6 D2 E4 | F4 D4 G4 | E4 C2 D2 E2 C2 | F2 G2 A2 B2 c2 A2 | d6 d2 c4- | c4 B8 | c12 | %91
w: ||Scu- to cir-|cum- da- bit|te ve- * * *||* ri- tas|_ e-|ius,-|
 A12 | d12 | c6 =B2 A4 | d4 e2 d2 e2 c2 | d12 | e8 z4 | z12 | F6 G2 A4 | B4 G4 c4 | %100
w: ve-||* ri- tas|e- * * * *||ius,-||Scu- to cir-|cum- da- bit|
 A4 F2 G2 A2 =B2 | c12- | c4 =B4 B4 | c8 B4 | A12 | G12 | F12 | E8 z4 | z12 | z12 | F6 G2 A4 | %111
w: te ve- * * *||* ri- tas|e- *||||ius,-|||Scu- to cir-|
 B4 G4 c4 | A4 F2 G2 A2 =B2 | c12- | c6 c2 d4 | G4 c2 d2 e2 c2 | d4 e4 d4 | c6 B2 A2 B2 | c12 | %119
w: cum- da- bit|te ve- * * *||* ri- tas|e- * * * *||||
 c12 | d6 d2 c4 | d4 d4 c4 | d24 | !fermata!c24 |] %124
w: ius,-|ve- ri- tas|ve- ri- tas|e-|ius.|
V:4
 F,4 F,2 F,2 | C,8 | F,8 | z8 | z8 | z8 | z4 F,4- | F,2 E,2 D,2 G,2 | E,2 C,2 F,4- | F,4 E,4 | %10
w: Sca- pu- lis|su-|is||||o-|* bum- bra- bit|ti- bi Do-|* mi-|
 F,8 | z4 F,2 G,2 | A,4 F,4 | C4 C,4 | F,8- | F,4 E,4 | D,6 D,2 | C,8 | z8 | z8 | C4 C2 C2 | %21
w: nus,|o- bum-|bra- bit|ti- bi|Do-||* mi-|nus,|||Sca- pu- lis|
 A,2 F,2 A,2 B,2 | C4 A,4 | B,8- | B,4 A,4 | G,6 G,2 | F,4 z4 | z4 C4- | C2 =B,2 A,2 D2 | %29
w: su- is o- bum-|bra- bit|ti-|* bi|Do- mi-|nus,|o-|* bum- bra- bit|
 =B,2 G,2 C4- | C4 =B,4 | C4 z4 | z8 | z4 F,4- | F,2 E,2 D,2 G,2 | E,2 C,2 F,4- | F,4 E,4 | F,8 | %38
w: ti- bi Do-|* mi-|nus,||o-|* bum- bra- bit|ti- bi Do-|* mi-|nus,|
 F,6 F,2 | G,4 A,4 | B,8 | A,6 G,2 | F,4 D,4 | G,8- | G,4 F,2 G,2 | A,8 | D,8 | z8 | z4 G,4- | %49
w: et sub|pen- nis|e-|ius, sub|pen- nis|e-|* ius spe-|ra-|bis.||Sca-|
 G,4 F,2 G,2 | E,8 | F,4 F,4- | F,2 E,2 D,2 G,2 | E,2 C,2 F,4- | F,4 E,4 | F,8 | z4 F,2 G,2 | %57
w: * pu- lis|su-|is o-|* bum- bra- bit|ti- bi Do-|* mi-|nus,|et sub|
 A,4 F,4 | C6 B,2 | A,4 F,4 | B,4 G,4 | E,4 F,4 | C,8- | C,8- | C,8- | C,8- | C,8- | C,8 | F,16 || %69
w: pen- nis|e- *|ius spe-|ra- *||||||||bis.|
[M:3/2] z12 | z12 | z12 | C,6 D,2 E,4 | F,4 D,4 G,4 | E,4 C,2 D,2 E,2 C,2 | F,12- | F,4 E,4 E,4 | %77
w: |||Scu- to cir-|cum- da- bit|te ve- * * *||* ri- tas|
 D,12 | C,12 | z12 | z12 | F,6 G,2 A,4 | B,4 G,4 C4 | A,4 F,2 G,2 A,2 =B,2 | C12- | C4 =B,4 B,4 | %86
w: e-|ius,-|||Scu- to cir-|cum- da- bit|te ve- * * *||* ri- tas|
 C8 B,4 | A,4 F,2 G,2 A,2 F,2 | B,6 B,2 A,4- | A,4 G,8 | F,12 | F,12 | G,12 | A,6 G,2 F,4 | G,12- | %95
w: e- ius,-|ve- * * * *|* ri- tas|_ e-|ius,-|ve-||* ri- tas|e-|
 G,12 | C,8 z4 | z12 | z12 | z12 | z12 | C,6 D,2 E,4 | F,4 D,4 G,4 | E,4 C,2 D,2 E,2 C,2 | F,12- | %105
w: |ius,-|||||Scu- to cir-|cum- da- bit|te ve- * * *||
 F,4 E,4 E,4 | D,12 | C,4 C8- | C4 =B,4 B,4 | C8 B,4 | A,6 G,2 F,4 | G,4 C,4 C,4 | F,12 | C,12 | %114
w: * ri- tas|e-|ius,- ve-|* ri- tas|e- ius,-|ve- ri- tas|ve- ri- tas|e-|ius,-|
 F,6 E,2 D,4 | C,12- | C,12- | C,12- | C,12 | F,12 | B,6 B,2 F,4 | B,4 B,4 A,4 | B,24 | %123
w: ve- ri- tas|e-||||ius,-|ve- ri- tas|ve- ri- tas|e-|
 !fermata!F,24 |] %124
w: ius.|

